src/view/frontend/web/svg/heroicons/solid/phone-missed-call.svg

<svg viewBox="0 0 20 20" fill="currentColor" xmlns="http://www.w3.org/2000/svg">
<path d="M2 3C2 2.44772 2.44772 2 3 2H5.15287C5.64171 2 6.0589 2.35341 6.13927 2.8356L6.87858 7.27147C6.95075 7.70451 6.73206 8.13397 6.3394 8.3303L4.79126 9.10437C5.90756 11.8783 8.12168 14.0924 10.8956 15.2087L11.6697 13.6606C11.866 13.2679 12.2955 13.0492 12.7285 13.1214L17.1644 13.8607C17.6466 13.9411 18 14.3583 18 14.8471V17C18 17.5523 17.5523 18 17 18H15C7.8203 18 2 12.1797 2 5V3Z" />
<path d="M16.7071 3.29289C17.0976 3.68342 17.0976 4.31658 16.7071 4.70711L15.4142 6L16.7071 7.29289C17.0976 7.68342 17.0976 8.31658 16.7071 8.70711C16.3166 9.09763 15.6834 9.09763 15.2929 8.70711L14 7.41421L12.7071 8.70711C12.3166 9.09763 11.6834 9.09763 11.2929 8.70711C10.9024 8.31658 10.9024 7.68342 11.2929 7.29289L12.5858 6L11.2929 4.70711C10.9024 4.31658 10.9024 3.68342 11.2929 3.29289C11.6834 2.90237 12.3166 2.90237 12.7071 3.29289L14 4.58579L15.2929 3.29289C15.6834 2.90237 16.3166 2.90237 16.7071 3.29289Z" />
</svg>

<svg xmlns="http://www.w3.org/2000/svg" viewBox="0 0 20 20" fill="currentColor">
  <path d="M2 3a1 1 0 011-1h2.153a1 1 0 01.986.836l.74 4.435a1 1 0 01-.54 1.06l-1.548.773a11.037 11.037 0 006.105 6.105l.774-1.548a1 1 0 011.059-.54l4.435.74a1 1 0 01.836.986V17a1 1 0 01-1 1h-2C7.82 18 2 12.18 2 5V3z"/>
  <path d="M16.707 3.293a1 1 0 010 1.414L15.414 6l1.293 1.293a1 1 0 01-1.414 1.414L14 7.414l-1.293 1.293a1 1 0 11-1.414-1.414L12.586 6l-1.293-1.293a1 1 0 011.414-1.414L14 4.586l1.293-1.293a1 1 0 011.414 0z"/>
</svg>
